X: 1
T: Four Kisses, The
M: 4/4
L: 1/8
R: reel
K: Dmaj
~B3ef~B3|afec ABcA|B2aB gBfB|~e3f edcd|
~B3ef~B3|afec ABce|a~f3 a~f3|edcd B4:|
d3c dfed|Bcce aecA|B~F3 GBdB|cBAc ~B3c|
d3c dfed|Bcce aece|a~f3 a~f3|edcd B4:|
